X:43
T: Nigu sifan
N: C1541
O: China, Heilongjiang
S: III, 51]
R: Xiaodiao]
M: 4/4
L: 1/16
K: Bb
z2d2d2c2b2c2d2c2 | d2c2d2c2b2g2f4 | c3df2b2g2f2d2z2
d2d4d2c2d2f4 | z2d4c2B8
d6c2b2g2f4 | f2d2c2b2b2g2f4
g4g4z2f4g2 | d4d2c2B8
g8g2b4d2 | f2d2d2c2B8
f2f2d2c2f3dc2b2 | b2g2f4b3gb2c2 | g2f2efg2f8

